SVG_Azure_Grouped/Application/App Service Reset Publish Profile.svg

<?xml version="1.0" encoding="UTF-8" standalone="no"?>
<!-- Generated by Microsoft Visio, SVG Export App Service Reset Publish Profile.svg Page-1 -->

<svg
   xmlns:dc="http://purl.org/dc/elements/1.1/"
   xmlns:cc="http://creativecommons.org/ns#"
   xmlns:rdf="http://www.w3.org/1999/02/22-rdf-syntax-ns#"
   xmlns:svg="http://www.w3.org/2000/svg"
   xmlns="http://www.w3.org/2000/svg"
   xmlns:sodipodi="http://sodipodi.sourceforge.net/DTD/sodipodi-0.dtd"
   xmlns:inkscape="http://www.inkscape.org/namespaces/inkscape"
   width="0.59055406in"
   height="0.787498in"
   viewBox="0 0 42.519772 56.699999"
   xml:space="preserve"
   class="st2"
   version="1.1"
   id="svg19"
   sodipodi:docname="App Service Reset Publish Profile.svg"
   style="font-size:12px;overflow:visible;color-interpolation-filters:sRGB;fill:none;fill-rule:evenodd;stroke-linecap:square;stroke-miterlimit:3"
   inkscape:version="0.92.5 (2060ec1f9f, 2020-04-08)"><metadata
   id="metadata25"><rdf:RDF><cc:Work
       rdf:about=""><dc:format>image/svg+xml</dc:format><dc:type
         rdf:resource="http://purl.org/dc/dcmitype/StillImage" /></cc:Work></rdf:RDF></metadata><defs
   id="defs23" /><sodipodi:namedview
   pagecolor="#ffffff"
   bordercolor="#666666"
   borderopacity="1"
   objecttolerance="10"
   gridtolerance="10"
   guidetolerance="10"
   inkscape:pageopacity="0"
   inkscape:pageshadow="2"
   inkscape:window-width="640"
   inkscape:window-height="480"
   id="namedview21"
   showgrid="false"
   inkscape:zoom="1.1323246"
   inkscape:cx="28.346199"
   inkscape:cy="37.800838"
   inkscape:window-x="0"
   inkscape:window-y="0"
   inkscape:window-maximized="0"
   inkscape:current-layer="svg19" />
	<style
   type="text/css"
   id="style2">
	<![CDATA[
		.st1 {fill:#000000;stroke:none;stroke-linecap:butt;stroke-width:49.8113}
		.st2 {fill:none;fill-rule:evenodd;font-size:12px;overflow:visible;stroke-linecap:square;stroke-miterlimit:3}
	]]>
	</style>

	<g
   id="g17"
   transform="translate(-49.811677,-49.8087)">
		<title
   id="title4">Page-1</title>
		<g
   id="group14598-1"
   transform="translate(49.8113,-49.8113)">
			<title
   id="title6">App Service Reset Publish Profile.14598</title>
			<g
   id="group14599-2">
				<title
   id="title8">Sheet.14599</title>
				<g
   id="shape14600-3">
					<title
   id="title10">Sheet.14600</title>
					<path
   d="M 17.72,117.45 H 0 V 99.62 h 3.54 v 11.77 l 2.84,-3.21 2.83,-2.5 2.84,-2.49 3.19,-1.78 a 6.02362,6.06151 0 0 1 3.54,-1.07 l 4.25,-0.72 4.96,0.72 4.96,2.14 3.9,2.85 a 17.7165,17.828 0 0 1 2.84,4.28 18.4252,18.5411 0 0 1 2.12,4.63 20.9055,21.037 0 0 1 0.71,4.99 27.6378,27.8116 0 0 1 -1.42,7.49 23.3858,23.5329 0 0 1 -4.25,6.06 l -23.03,23.54 -2.84,-2.86 23.39,-23.17 a 14.8819,14.9755 -180 0 0 3.19,-5 12.4016,12.4796 -180 0 0 1.42,-6.06 11.6929,11.7665 -180 0 0 -1.42,-6.06 9.92126,9.98366 -180 0 0 -3.54,-4.99 9.92126,9.98366 -180 0 0 -4.96,-3.57 11.6929,11.7665 -180 0 0 -6.03,-1.42 11.6929,11.7665 -180 0 0 -5.31,1.07 l -4.26,2.49 -3.54,3.21 -3.9,3.93 h 11.7 z"
   class="st1"
   id="path12"
   inkscape:connector-curvature="0"
   style="fill:#000000;stroke:none;stroke-width:49.81129837;stroke-linecap:butt" />
				</g>
			</g>
		</g>
	</g>
</svg>

<?xml version="1.0" encoding="UTF-8" standalone="no"?>
<!DOCTYPE svg PUBLIC "-//W3C//DTD SVG 1.1//EN" "http://www.w3.org/Graphics/SVG/1.1/DTD/svg11.dtd">
<!-- Generated by Microsoft Visio, SVG Export App Service Reset Publish Profile.svg Page-1 -->
<svg xmlns="http://www.w3.org/2000/svg" xmlns:xlink="http://www.w3.org/1999/xlink" xmlns:ev="http://www.w3.org/2001/xml-events"
		width="1.9742in" height="2.17105in" viewBox="0 0 142.142 156.316" xml:space="preserve" color-interpolation-filters="sRGB"
		class="st2">
	<style type="text/css">
	<![CDATA[
		.st1 {fill:#000000;stroke:none;stroke-linecap:butt;stroke-width:49.8113}
		.st2 {fill:none;fill-rule:evenodd;font-size:12px;overflow:visible;stroke-linecap:square;stroke-miterlimit:3}
	]]>
	</style>

	<g>
		<title>Page-1</title>
		<g id="group14241-1" transform="translate(49.8113,-49.8113)">
			<title>App Service Reset Publish Profile.14241</title>
			<g id="group14242-2">
				<title>Sheet.14242</title>
				<g id="shape14243-3">
					<title>Sheet.14243</title>
					<path d="M17.72 117.45 L0 117.45 L0 99.62 L3.54 99.62 L3.54 111.39 L6.38 108.18 L9.21 105.68 L12.05 103.19 L15.24
								 101.41 A6.02362 6.06151 0 0 1 18.78 100.34 L23.03 99.62 L27.99 100.34 L32.95 102.48 L36.85 105.33
								 A17.7165 17.828 0 0 1 39.69 109.61 A18.4252 18.5411 0 0 1 41.81 114.24 A20.9055 21.037 0 0 1 42.52
								 119.23 A27.6378 27.8116 0 0 1 41.1 126.72 A23.3858 23.5329 0 0 1 36.85 132.78 L13.82 156.32 L10.98
								 153.46 L34.37 130.29 A14.8819 14.9755 -180 0 0 37.56 125.29 A12.4016 12.4796 -180 0 0 38.98 119.23
								 A11.6929 11.7665 -180 0 0 37.56 113.17 A9.92126 9.98366 -180 0 0 34.02 108.18 A9.92126 9.98366 -180
								 0 0 29.06 104.61 A11.6929 11.7665 -180 0 0 23.03 103.19 A11.6929 11.7665 -180 0 0 17.72 104.26 L13.46
								 106.75 L9.92 109.96 L6.02 113.89 L17.72 113.89 L17.72 117.45 Z" class="st1"/>
				</g>
			</g>
		</g>
	</g>
</svg>
